_inc/systems/logos/c128.svg

<?xml version="1.0" encoding="UTF-8" standalone="no"?>
<svg
   width="333"
   height="102"
   viewBox="0 0 333 102"
   fill="none"
   version="1.1"
   id="svg12"
   sodipodi:docname="c128.svg"
   inkscape:version="1.3.2 (091e20e, 2023-11-25, custom)"
   xmlns:inkscape="http://www.inkscape.org/namespaces/inkscape"
   xmlns:sodipodi="http://sodipodi.sourceforge.net/DTD/sodipodi-0.dtd"
   xmlns="http://www.w3.org/2000/svg"
   xmlns:svg="http://www.w3.org/2000/svg">
  <defs
     id="defs12" />
  <sodipodi:namedview
     id="namedview12"
     pagecolor="#505050"
     bordercolor="#eeeeee"
     borderopacity="1"
     inkscape:showpageshadow="0"
     inkscape:pageopacity="0"
     inkscape:pagecheckerboard="0"
     inkscape:deskcolor="#505050"
     inkscape:zoom="1.9061562"
     inkscape:cx="255.7503"
     inkscape:cy="-153.97479"
     inkscape:window-width="3840"
     inkscape:window-height="2054"
     inkscape:window-x="-11"
     inkscape:window-y="-11"
     inkscape:window-maximized="1"
     inkscape:current-layer="svg12" />
  <path
     d="M186.512 101.156V65.8369H182.79L168.671 77.7195L160.648 68.3326L178.058 53.3672H201.123V101.148L186.512 101.156Z"
     fill="white"
     id="path1" />
  <path
     d="M210.942 101.158C210.942 99.2924 210.795 97.358 210.795 95.4927C210.795 91.624 210.726 87.7553 211.365 83.9556C212.652 76.0023 219.535 75.0005 226.417 74.422L244.465 72.9885C246.763 72.7726 249.267 72.7726 251.486 71.9867C253.567 71.27 253.567 70.0524 253.567 68.0489C253.567 66.6845 253.567 65.1819 252.35 64.3184C250.562 62.9539 242.816 63.3166 240.744 63.3166C236.374 63.3166 231.642 63.1007 227.272 63.8175C223.973 64.3184 224.336 66.6845 224.336 69.5515V71.1318H210.217V69.1974C210.217 65.2596 210.286 59.8106 213.231 56.7277C216.529 53.2907 223.835 53.1439 228.205 52.9281C231.288 52.7813 234.37 52.7812 237.445 52.7812H238.809L250.631 52.8503C255.217 52.8503 261.098 52.9194 264.535 56.4341C267.186 59.1543 267.186 64.6033 267.186 68.118C267.186 71.7018 267.117 75.5014 265.104 78.6534C262.453 82.8848 254.932 83.4547 250.484 83.7397C247.048 83.9556 243.68 84.1715 240.234 84.3874C237.514 84.5342 234.785 84.7414 232.065 84.9573C230.847 85.0264 227.764 85.2423 226.616 85.6741C224.319 86.5376 224.319 88.1093 224.319 90.1905H267.954V101.158H210.942Z"
     fill="white"
     id="path2" />
  <path
     d="M328.351 98.7915C323.619 102.228 312.237 101.728 306.572 101.728H300.052C294.18 101.728 284.508 102.159 279.491 98.7915C276.123 96.4944 275.838 91.909 275.838 88.187C275.838 85.0351 276.123 81.6672 278.42 79.301C280.138 77.5135 282.79 77.1508 285.156 76.719C284.085 76.6499 282.936 76.5722 281.857 76.2872C277.056 75.0005 276.408 70.2683 276.408 65.9677C276.408 59.0161 278.489 54.9315 285.726 53.783C291.676 52.8503 297.91 52.7812 303.921 52.7812C307.22 52.7812 310.51 52.8503 313.809 52.9971C318.04 53.213 324.059 53.3598 327.643 55.7951C330.941 58.0144 331.442 62.5308 331.442 66.1836C331.442 68.9816 331.08 72.2026 329.223 74.3529C327.505 76.3563 325.207 76.5722 322.703 76.719C325.285 77.1508 327.505 77.4358 329.439 79.301C331.943 81.6672 332.021 85.8209 332.021 89.0506C332.004 92.6257 331.503 96.5722 328.351 98.7915ZM317.245 83.2389C316.175 82.168 312.228 82.2371 310.864 82.2371C308.282 82.168 305.708 82.0903 303.126 82.0903C300.76 82.0903 292.375 81.8744 290.803 83.023C289.733 83.8088 289.733 85.605 289.733 86.8226C289.733 87.8934 289.802 89.1197 290.665 89.9055C292.315 91.339 301.131 90.9763 303.204 90.9763C305.708 90.9763 308.221 90.9072 310.726 90.8295C312.513 90.8295 316.814 91.0454 317.746 88.9642C318.1 88.1784 318.1 87.0989 318.1 86.244C318.1 85.2423 318.031 83.9556 317.245 83.2389ZM310.872 63.688C308.005 63.6189 305.207 63.5412 302.349 63.5412C299.413 63.5412 296.33 63.4721 293.394 63.9038C290.959 64.2579 290.311 65.5532 290.311 67.9194C290.311 70.4237 291.175 71.2872 293.61 71.5722C298.696 72.0731 304.145 71.8572 309.223 71.8572C310.872 71.8572 315.674 71.8572 316.822 70.7087C317.539 69.9919 317.539 68.6275 317.539 67.6949C317.53 63.5412 314.171 63.757 310.872 63.688Z"
     fill="white"
     id="path3" />
  <path
     fill-rule="evenodd"
     clip-rule="evenodd"
     d="M0.5 52.7891H150.457V57.8322H0.5V52.7891Z"
     fill="#4D4D4D"
     id="path4"
     style="fill:#ffffff" />
  <path
     fill-rule="evenodd"
     clip-rule="evenodd"
     d="M0.5 63.7754H150.457V68.8186H0.5V63.7754Z"
     fill="#939393"
     id="path5"
     style="fill:#ffffff" />
  <path
     fill-rule="evenodd"
     clip-rule="evenodd"
     d="M0.5 74.7598H150.457V79.7857H0.5V74.7598Z"
     fill="#E0E0E0"
     id="path6"
     style="fill:#ffffff" />
  <path
     fill-rule="evenodd"
     clip-rule="evenodd"
     d="M0.5 85.7344H150.457V90.7689H0.5V85.7344Z"
     fill="#939393"
     id="path7"
     style="fill:#ffffff" />
  <path
     fill-rule="evenodd"
     clip-rule="evenodd"
     d="M0.5 96.7109H150.457V101.754H0.5V96.7109Z"
     fill="#828282"
     id="path8"
     style="fill:#ffffff" />
  <path
     d="M292.652 13.6539H286.503V31.3136H292.928V22.0822C292.928 19.6728 294.405 18.4639 297.082 18.4639C299.759 18.4639 300.432 19.267 300.562 21.5381H306.59C306.59 15.5191 305.786 13.2394 299.362 13.2394C295.476 13.2394 294.137 14.0425 292.669 16.9872L292.652 13.6539ZM322.229 27.8334C316.071 27.8334 315.139 27.298 315.139 24.2151H331.995C331.728 15.6487 331.728 13.6452 320.346 13.6452C310.709 13.6452 308.558 15.381 308.558 23.0148C308.558 30.1132 311.374 31.849 319.137 31.9871C327.842 31.9871 331.987 31.5813 331.987 25.83H325.691C325.441 27.1685 324.906 27.8334 322.229 27.8334ZM315.009 20.476C315.277 18.602 315.812 17.9285 320.096 17.9285C324.785 17.9285 325.45 18.1962 325.717 20.476H315.009ZM75.7262 21.1409H82.1511C81.6157 15.1133 79.8713 13.6452 70.9076 13.6452C60.7349 13.6452 58.4551 15.2514 58.4551 22.7471C58.4551 30.2428 60.5967 31.9871 70.1045 31.9871C80.1476 31.9871 82.1511 30.6486 82.1511 24.3533H75.7262C75.7262 26.0977 75.0613 26.9008 70.1045 26.9008C65.8212 26.9008 64.8799 25.83 64.8799 22.3499C64.8799 18.9993 65.8126 18.9993 70.9076 18.9993C74.6554 18.9993 75.3203 19.4051 75.7262 21.1409ZM224.94 22.2117C224.94 14.9837 222.799 13.5157 212.488 13.5157C201.374 13.5157 200.044 15.3896 200.044 22.8853C200.044 30.3809 201.918 31.9871 212.488 31.9871C223.731 31.9871 224.94 30.1132 224.94 22.2117ZM206.598 22.6176C206.598 18.9993 207.401 18.602 212.091 18.602C217.315 18.602 218.248 18.7316 218.248 22.6176C218.248 26.2359 217.574 26.9008 212.626 26.9008C207.263 26.9008 206.598 26.3654 206.598 22.6176ZM282.617 22.2117C282.617 14.9837 280.605 13.5157 270.303 13.5157C259.327 13.5157 257.989 15.2514 257.989 22.7557C257.989 30.3896 259.863 31.9958 270.303 31.9958C281.546 31.9872 282.617 30.1132 282.617 22.2117ZM264.413 22.6176C264.413 18.9993 265.217 18.602 269.897 18.602C275.122 18.602 276.054 18.7316 276.054 22.6176C276.054 26.2359 275.389 26.9008 270.432 26.9008C265.087 26.9008 264.413 26.3654 264.413 22.6176ZM110.648 22.2117C110.648 14.9837 108.636 13.5157 98.3341 13.5157C87.2202 13.5157 85.8817 15.2514 85.8817 22.7557C85.8817 30.3896 87.7556 31.9958 98.3341 31.9958C109.578 31.9872 110.648 30.1132 110.648 22.2117ZM92.5829 22.6176C92.5829 18.9993 93.386 18.602 97.9369 18.602C103.161 18.602 104.094 18.7316 104.094 22.6176C104.094 26.2359 103.42 26.9008 98.4723 26.9008C93.2478 26.9008 92.5829 26.3654 92.5829 22.6176ZM247.289 6.1582V16.4691C245.821 14.457 244.483 13.3948 239.129 13.3948C230.562 13.3948 228.956 15.6746 228.956 22.6348C228.956 29.7333 231.236 31.7367 239.534 31.7367C244.759 31.7367 246.365 30.3982 247.565 28.1271V31.3395H253.99V6.1582H247.289ZM242.6 18.4639C246.21 18.4639 247.419 18.9993 247.419 21.8058C247.419 26.0891 247.151 26.4949 242.065 26.4949C236.978 26.4949 235.64 26.3568 235.64 22.7471C235.64 18.602 237.246 18.4639 242.6 18.4639ZM120.821 13.6539H114.802V31.3136H121.227V22.2117C121.227 19.5347 122.566 18.602 126.184 18.602C129.534 18.602 130.467 19.8024 130.467 23.153V31.3136H137.03V21.944C137.03 19.3965 139.034 18.602 142.116 18.602C145.061 18.602 146.4 19.4051 146.4 21.944V31.3136H152.825V20.8732C152.825 15.6573 149.612 13.2394 143.723 13.2394C138.636 13.2394 136.762 15.1133 136.089 17.1254C134.75 14.8456 132.876 13.2394 127.79 13.2394C122.971 13.2394 121.633 14.8456 120.83 17.7903L120.821 13.6539ZM164.051 13.6539H158.023V31.3136H164.448V22.2117C164.448 19.5347 166.054 18.602 169.267 18.602C172.617 18.602 173.55 19.6728 173.55 23.153V31.3136H180.113V21.944C180.113 19.3965 181.987 18.602 185.07 18.602C188.015 18.602 189.483 19.5347 189.483 21.944V31.3136H195.907V20.8732C195.907 15.6573 192.695 13.2394 186.806 13.2394C181.719 13.2394 179.975 14.9751 179.172 17.1254C177.833 14.8456 175.959 13.2394 170.873 13.2394C166.192 13.2394 164.983 14.8456 164.051 17.7903V13.6539Z"
     fill="white"
     id="path9" />
  <path
     d="M29.386 33.575C27.6243 34.5595 25.6036 35.1294 23.4447 35.1294C16.7349 35.1294 11.2686 29.6718 11.2686 22.9533C11.2686 16.2348 16.7262 10.7772 23.4447 10.7772C25.6036 10.7772 27.6243 11.3385 29.386 12.3316V0.7772C27.4948 0.267702 25.5 0 23.4447 0C10.7763 0 0.5 10.2763 0.5 22.9533C0.5 35.6303 10.7763 45.9066 23.4533 45.9066C25.5086 45.9066 27.4948 45.6303 29.3946 45.1294L29.386 33.575Z"
     fill="white"
     id="path10" />
  <path
     d="M39.0154 12.9355H35.9843H29.3867V22.1151H35.9843H39.0154H40.2157L49.3953 12.9355H39.0154Z"
     fill="white"
     id="path11" />
  <path
     d="M49.3953 32.9706L40.2157 23.791H39.0154H35.9843H29.3867V32.9792H39.0154V32.9706H49.3953Z"
     fill="white"
     id="path12" />
</svg>

<?xml version="1.0" encoding="UTF-8" standalone="no"?><svg fill="none" viewBox="0 0 333 102" version="1.1" id="svg8" xmlns="http://www.w3.org/2000/svg" xmlns:svg="http://www.w3.org/2000/svg"><path fill="currentColor" d="M186.51 101.16V65.84h-3.72l-14.12 11.88-8.02-9.39 17.4-14.96h23.07v47.78zm24.43 0c0-1.87-.15-3.8-.15-5.67 0-3.87-.06-7.73.58-11.53 1.28-7.96 8.16-8.96 15.05-9.54L244.47 73c2.3-.22 4.8-.22 7.02-1 2.08-.72 2.08-1.94 2.08-3.94 0-1.37 0-2.87-1.22-3.73-1.79-1.37-9.53-1-11.6-1-4.38 0-9.1-.22-13.48.5-3.3.5-2.93 2.86-2.93 5.73v1.58h-14.12V69.2c0-3.94.07-9.39 3.01-12.47 3.3-3.44 10.6-3.59 14.98-3.8 3.08-.15 6.16-.15 9.23-.15h1.37l11.82.07c4.59 0 10.47.07 13.9 3.58 2.66 2.72 2.66 8.17 2.66 11.69 0 3.58-.07 7.38-2.09 10.53-2.65 4.23-10.17 4.8-14.62 5.09l-10.25.65q-4.08.22-8.16.57c-1.22.07-4.3.28-5.45.71-2.3.87-2.3 2.44-2.3 4.52h43.63v10.97zm117.41-2.36c-4.73 3.43-16.11 2.93-21.78 2.93h-6.52c-5.87 0-15.54.43-20.56-2.94-3.37-2.3-3.65-6.88-3.65-10.6 0-3.15.28-6.52 2.58-8.89 1.72-1.79 4.37-2.15 6.74-2.58a17 17 0 0 1-3.3-.43c-4.8-1.29-5.45-6.02-5.45-10.32 0-6.95 2.08-11.04 9.32-12.19 5.95-.93 12.18-1 18.2-1q4.93 0 9.88.22c4.23.21 10.25.36 13.83 2.8 3.3 2.21 3.8 6.73 3.8 10.38 0 2.8-.36 6.02-2.22 8.17-1.72 2-4.01 2.22-6.52 2.37 2.59.43 4.8.72 6.74 2.58 2.5 2.37 2.58 6.52 2.58 9.75-.02 3.58-.52 7.52-3.67 9.74m-11.1-15.56c-1.07-1.07-5.02-1-6.39-1-2.58-.07-5.15-.15-7.73-.15-2.37 0-10.75-.22-12.33.93-1.07.79-1.07 2.59-1.07 3.8 0 1.07.07 2.3.94 3.09 1.64 1.43 10.46 1.07 12.53 1.07q3.76-.01 7.53-.15c1.78 0 6.08.22 7.02-1.87.35-.78.35-1.86.35-2.72 0-1-.07-2.28-.86-3m-6.38-19.55c-2.87-.07-5.66-.15-8.52-.15-2.94 0-6.02-.07-8.96.36-2.43.36-3.08 1.65-3.08 4.02 0 2.5.87 3.37 3.3 3.65 5.09.5 10.53.29 15.61.29 1.65 0 6.45 0 7.6-1.15.72-.72.72-2.08.72-3.02-.01-4.15-3.37-3.93-6.67-4" id="path1" style="fill:#ffffff"/><path fill="currentColor" fill-rule="evenodd" d="M.5 52.79h149.96v5.04H.5z" clip-rule="evenodd" style="fill:#ffffff" id="path2"/><path fill="currentColor" fill-rule="evenodd" d="M.5 63.78h149.96v5.04H.5z" clip-rule="evenodd" style="fill:#ffffff" id="path3"/><path fill="currentColor" fill-rule="evenodd" d="M.5 74.76h149.96v5.03H.5z" clip-rule="evenodd" style="fill:#ffffff" id="path4"/><path fill="currentColor" fill-rule="evenodd" d="M.5 85.73h149.96v5.04H.5z" clip-rule="evenodd" style="fill:#ffffff" id="path5"/><path fill="currentColor" fill-rule="evenodd" d="M.5 96.71h149.96v5.04H.5z" clip-rule="evenodd" style="fill:#ffffff" id="path6"/><path fill="currentColor" d="M292.65 13.65h-6.15v17.66h6.43v-9.23c0-2.4 1.47-3.62 4.15-3.62s3.35.8 3.48 3.08h6.03c0-6.02-.8-8.3-7.23-8.3-3.88 0-5.22.8-6.7 3.75zm29.58 14.18c-6.16 0-7.1-.53-7.1-3.61H332c-.27-8.57-.27-10.57-11.65-10.57-9.64 0-11.8 1.73-11.8 9.36 0 7.1 2.82 8.84 10.59 8.98 8.7 0 12.85-.4 12.85-6.16h-6.3c-.25 1.34-.78 2-3.46 2M315 20.48c.27-1.88.8-2.55 5.09-2.55 4.69 0 5.35.27 5.62 2.55zm-239.28.66h6.42c-.53-6.03-2.28-7.5-11.24-7.5-10.18 0-12.45 1.61-12.45 9.1 0 7.5 2.14 9.25 11.64 9.25 10.05 0 12.05-1.34 12.05-7.64h-6.42c0 1.75-.67 2.55-5.63 2.55-4.28 0-5.22-1.07-5.22-4.55 0-3.35.93-3.35 6.03-3.35 3.75 0 4.41.4 4.82 2.14m149.21 1.07c0-7.23-2.14-8.7-12.45-8.7-11.12 0-12.45 1.88-12.45 9.38s1.88 9.1 12.45 9.1c11.24 0 12.45-1.88 12.45-9.78m-18.34.4c0-3.61.8-4 5.5-4 5.22 0 6.15.12 6.15 4 0 3.63-.68 4.3-5.62 4.3-5.37 0-6.03-.54-6.03-4.3m76.02-.4c0-7.23-2.01-8.7-12.32-8.7-10.97 0-12.31 1.74-12.31 9.25 0 7.63 1.87 9.24 12.31 9.24 11.25-.01 12.32-1.89 12.32-9.79m-18.2.4c0-3.61.8-4 5.48-4 5.22 0 6.15.12 6.15 4 0 3.63-.66 4.3-5.62 4.3-5.34 0-6.02-.54-6.02-4.3m-153.77-.4c0-7.23-2.01-8.7-12.32-8.7-11.11 0-12.45 1.74-12.45 9.25 0 7.63 1.88 9.24 12.45 9.24 11.25-.01 12.32-1.89 12.32-9.79m-18.07.4c0-3.61.8-4 5.36-4 5.22 0 6.15.12 6.15 4 0 3.63-.67 4.3-5.62 4.3-5.22 0-5.89-.54-5.89-4.3m154.7-16.45v10.3c-1.46-2-2.8-3.07-8.15-3.07-8.57 0-10.17 2.28-10.17 9.24 0 7.1 2.28 9.1 10.57 9.1 5.23 0 6.84-1.33 8.03-3.6v3.21H254V6.16zm-4.68 12.3c3.61 0 4.82.54 4.82 3.35 0 4.28-.27 4.68-5.35 4.68-5.1 0-6.43-.13-6.43-3.74 0-4.15 1.6-4.29 6.96-4.29m-121.78-4.8h-6.02V31.3h6.43v-9.1c0-2.68 1.34-3.6 4.95-3.6 3.35 0 4.29 1.2 4.29 4.54v8.16h6.56v-9.37c0-2.54 2-3.34 5.09-3.34 2.94 0 4.28.8 4.28 3.34v9.37h6.42V20.87c0-5.21-3.2-7.63-9.1-7.63-5.08 0-6.96 1.87-7.63 3.89-1.34-2.28-3.21-3.9-8.3-3.9-4.82 0-6.16 1.62-6.96 4.56zm43.23 0H158V31.3h6.43v-9.1c0-2.68 1.6-3.6 4.82-3.6 3.35 0 4.28 1.06 4.28 4.54v8.16h6.56v-9.37c0-2.54 1.88-3.34 4.96-3.34 2.94 0 4.41.93 4.41 3.34v9.37h6.43V20.87c0-5.21-3.22-7.63-9.1-7.63-5.1 0-6.84 1.74-7.64 3.89-1.34-2.28-3.21-3.9-8.3-3.9-4.68 0-5.89 1.62-6.82 4.56zM29.39 33.58a12.2 12.2 0 0 1-18.12-10.62 12.18 12.18 0 0 1 18.12-10.63V.78Q26.53 0 23.44 0a22.95 22.95 0 1 0 5.95 45.13z" id="path7" style="fill:#ffffff"/><path fill="currentColor" d="M39.02 12.94h-9.64v9.18h10.84l9.18-9.18zM49.4 32.97l-9.18-9.18H29.38v9.19z" id="path8" style="fill:#ffffff"/></svg>
